X: 74
T: One-Horned Sheep
R: jig
M: 6/8
K: G
"G"g2G GFG| "C"EGG "G"DGG| "G"g2G GFG| "Am"EAG "D"FED|
"G"g2G GFG| "C"EGG "G"DGG| "C"EGG "D"FGA| "G"BGF G3 :|
|: \
"G"GBd dBG| GBd "D"d2D|"G" GBd "Bm"dcB| "C"cBc "D"A2D|
"G"GBd dBG| GBd def| "C"gfe "G"dcB |1 "D"ABA "G"G2D :|2 "Am"ABc "D7"def |]
